blockchains/ethereum/assets/0x630323f3A19d248CaB2FA9ef1cD743E7985768dD/logo.svg

<svg fill="none" height="250" viewBox="0 0 250 250" width="250" xmlns="http://www.w3.org/2000/svg" xmlns:xlink="http://www.w3.org/1999/xlink"><clipPath id="a"><path d="m0 0h250v250h-250z"/></clipPath><g clip-path="url(#a)"><path d="m125 250c69.036 0 125-55.964 125-125 0-69.0356-55.964-125-125-125-69.0356 0-125 55.9644-125 125 0 69.036 55.9644 125 125 125z" fill="#5b6dee"/><path d="m103.909 117.349c-4.3586-.025-8.7101.35-13.0003 1.119 3.5313-32.6604 30.7503-57.3904 63.1553-57.3879 19.841 0 33.436 9.715 33.436 29.83 0 20.1149-16.317 29.8299-40.125 29.8299-17.572-.001-25.891-3.391-43.466-3.391zm-1.284 11.912c-23.8063 0-40.125 9.715-40.125 29.83s13.595 29.83 33.4363 29.83c32.4087 0 59.6247-24.727 63.1547-57.387-4.29.769-8.641 1.143-13 1.119-17.575-.002-25.894-3.392-43.466-3.392z" fill="#fff"/></g></svg>

<svg width="250" height="250" viewBox="0 0 250 250" fill="none" xmlns="http://www.w3.org/2000/svg">
<g clip-path="url(#clip0_9_823)">
<path d="M125 250C194.036 250 250 194.036 250 125C250 55.9644 194.036 0 125 0C55.9644 0 0 55.9644 0 125C0 194.036 55.9644 250 125 250Z" fill="#5B6DEE"/>
<path d="M103.909 117.349C99.5504 117.324 95.1989 117.699 90.9087 118.468C94.44 85.8076 121.659 61.0776 154.064 61.0801C173.905 61.0801 187.5 70.7951 187.5 90.9101C187.5 111.025 171.183 120.74 147.375 120.74C129.803 120.739 121.484 117.349 103.909 117.349ZM102.625 129.261C78.8187 129.261 62.5 138.976 62.5 159.091C62.5 179.206 76.095 188.921 95.9363 188.921C128.345 188.921 155.561 164.194 159.091 131.534C154.801 132.303 150.45 132.677 146.091 132.653C128.516 132.651 120.197 129.261 102.625 129.261Z" fill="white"/>
</g>
<defs>
<clipPath id="clip0_9_823">
<rect width="250" height="250" fill="white"/>
</clipPath>
</defs>
</svg>
